usr/share/icons/biglinux-icons-material-dark/16/actions/format-list-ordered.svg

<svg xmlns="http://www.w3.org/2000/svg" viewBox="0 0 16 16">
<defs id="defs3051">
<style id="current-color-scheme" type="text/css">
.ColorScheme-Text{color:#dedede}
</style>
</defs>
<path d="M3 2v1h1v2H3v1h3V5H5V3h1V2zm5 0v1h6V2zm0 2v1h4V4zM2 8v1h1v2H2v1h5v-1H6V9h1V8zm6 0v1h6V8zM4 9h1v2H4zm4 1v1h2v-1zm3 0v1h3v-1zm1 3v1h2v-1z" class="ColorScheme-Text" style="fill:currentColor;fill-opacity:1;stroke:none"/>
</svg>

<svg xmlns="http://www.w3.org/2000/svg" viewBox="0 0 16 16">
  <defs id="defs3051">
    <style type="text/css" id="current-color-scheme">
      .ColorScheme-Text {
        color:#dedede;
      }
      </style>
  </defs>
 <path style="fill:currentColor;fill-opacity:1;stroke:none" 
       d="M 3 2 L 3 3 L 4 3 L 4 5 L 3 5 L 3 6 L 6 6 L 6 5 L 5 5 L 5 3 L 6 3 L 6 2 L 3 2 z M 8 2 L 8 3 L 14 3 L 14 2 L 8 2 z M 8 4 L 8 5 L 12 5 L 12 4 L 8 4 z M 2 8 L 2 9 L 3 9 L 3 11 L 2 11 L 2 12 L 5 12 L 7 12 L 7 11 L 6 11 L 6 9 L 7 9 L 7 8 L 2 8 z M 8 8 L 8 9 L 14 9 L 14 8 L 8 8 z M 4 9 L 5 9 L 5 11 L 4 11 L 4 9 z M 8 10 L 8 11 L 10 11 L 10 10 L 8 10 z M 11 10 L 11 11 L 12.875 11 L 13 11 L 14 11 L 14 10 L 13 10 L 12.875 10 L 11 10 z M 12 13 L 12 14 L 14 14 L 14 13 L 12 13 z "
     class="ColorScheme-Text"
     />
</svg>
